public/logos/logo.svg

<svg width="140" height="64" viewBox="0 0 140 64" fill="none" xmlns="http://www.w3.org/2000/svg">
<path d="M9.83008 52.3105L9.99414 53.4355L10.2344 52.4219L11.9219 46.4688H12.8711L14.5176 52.4219L14.752 53.4531L14.9336 52.3047L16.2578 46.4688H17.3887L15.3203 55H14.2949L12.5371 48.7832L12.4023 48.1328L12.2676 48.7832L10.4453 55H9.41992L7.35742 46.4688H8.48242L9.83008 52.3105Z" fill="#040B1D"/>
<path d="M19.5566 49.4277C20.0371 48.8379 20.6621 48.543 21.4316 48.543C22.7715 48.543 23.4473 49.2988 23.459 50.8105V55H22.375V50.8047C22.3711 50.3477 22.2656 50.0098 22.0586 49.791C21.8555 49.5723 21.5371 49.4629 21.1035 49.4629C20.752 49.4629 20.4434 49.5566 20.1777 49.7441C19.9121 49.9316 19.7051 50.1777 19.5566 50.4824V55H18.4727V46H19.5566V49.4277Z" fill="#040B1D"/>
<path d="M26.2598 55H25.1758V48.6602H26.2598V55ZM25.0879 46.9785C25.0879 46.8027 25.1406 46.6543 25.2461 46.5332C25.3555 46.4121 25.5156 46.3516 25.7266 46.3516C25.9375 46.3516 26.0977 46.4121 26.207 46.5332C26.3164 46.6543 26.3711 46.8027 26.3711 46.9785C26.3711 47.1543 26.3164 47.3008 26.207 47.418C26.0977 47.5352 25.9375 47.5938 25.7266 47.5938C25.5156 47.5938 25.3555 47.5352 25.2461 47.418C25.1406 47.3008 25.0879 47.1543 25.0879 46.9785Z" fill="#040B1D"/>
<path d="M29.4707 47.125V48.6602H30.6543V49.498H29.4707V53.4297C29.4707 53.6836 29.5234 53.875 29.6289 54.0039C29.7344 54.1289 29.9141 54.1914 30.168 54.1914C30.293 54.1914 30.4648 54.168 30.6836 54.1211V55C30.3984 55.0781 30.1211 55.1172 29.8516 55.1172C29.3672 55.1172 29.002 54.9707 28.7559 54.6777C28.5098 54.3848 28.3867 53.9688 28.3867 53.4297V49.498H27.2324V48.6602H28.3867V47.125H29.4707Z" fill="#040B1D"/>
<path d="M34.5566 55.1172C33.6973 55.1172 32.998 54.8359 32.459 54.2734C31.9199 53.707 31.6504 52.9512 31.6504 52.0059V51.8066C31.6504 51.1777 31.7695 50.6172 32.0078 50.125C32.25 49.6289 32.5859 49.2422 33.0156 48.9648C33.4492 48.6836 33.918 48.543 34.4219 48.543C35.2461 48.543 35.8867 48.8145 36.3438 49.3574C36.8008 49.9004 37.0293 50.6777 37.0293 51.6895V52.1406H32.7344C32.75 52.7656 32.9316 53.2715 33.2793 53.6582C33.6309 54.041 34.0762 54.2324 34.6152 54.2324C34.998 54.2324 35.3223 54.1543 35.5879 53.998C35.8535 53.8418 36.0859 53.6348 36.2852 53.377L36.9473 53.8926C36.416 54.709 35.6191 55.1172 34.5566 55.1172ZM34.4219 49.4336C33.9844 49.4336 33.6172 49.5938 33.3203 49.9141C33.0234 50.2305 32.8398 50.6758 32.7695 51.25H35.9453V51.168C35.9141 50.6172 35.7656 50.1914 35.5 49.8906C35.2344 49.5859 34.875 49.4336 34.4219 49.4336Z" fill="#040B1D"/>
<path d="M42.4434 55H41.3594V46H42.4434V55Z" fill="#040B1D"/>
<path d="M48.0977 55C48.0352 54.875 47.9844 54.6523 47.9453 54.332C47.4414 54.8555 46.8398 55.1172 46.1406 55.1172C45.5156 55.1172 45.002 54.9414 44.5996 54.5898C44.2012 54.2344 44.002 53.7852 44.002 53.2422C44.002 52.582 44.252 52.0703 44.752 51.707C45.2559 51.3398 45.9629 51.1562 46.873 51.1562H47.9277V50.6582C47.9277 50.2793 47.8145 49.9785 47.5879 49.7559C47.3613 49.5293 47.0273 49.416 46.5859 49.416C46.1992 49.416 45.875 49.5137 45.6133 49.709C45.3516 49.9043 45.2207 50.1406 45.2207 50.418H44.1309C44.1309 50.1016 44.2422 49.7969 44.4648 49.5039C44.6914 49.207 44.9961 48.9727 45.3789 48.8008C45.7656 48.6289 46.1895 48.543 46.6504 48.543C47.3809 48.543 47.9531 48.7266 48.3672 49.0938C48.7812 49.457 48.9961 49.959 49.0117 50.5996V53.5176C49.0117 54.0996 49.0859 54.5625 49.2344 54.9062V55H48.0977ZM46.2988 54.1738C46.6387 54.1738 46.9609 54.0859 47.2656 53.9102C47.5703 53.7344 47.791 53.5059 47.9277 53.2246V51.9238H47.0781C45.75 51.9238 45.0859 52.3125 45.0859 53.0898C45.0859 53.4297 45.1992 53.6953 45.4258 53.8867C45.6523 54.0781 45.9434 54.1738 46.2988 54.1738Z" fill="#040B1D"/>
<path d="M56.0781 51.9004C56.0781 52.8691 55.8555 53.6484 55.4102 54.2383C54.9648 54.8242 54.3672 55.1172 53.6172 55.1172C52.8164 55.1172 52.1973 54.834 51.7598 54.2676L51.707 55H50.7109V46H51.7949V49.3574C52.2324 48.8145 52.8359 48.543 53.6055 48.543C54.375 48.543 54.9785 48.834 55.416 49.416C55.8574 49.998 56.0781 50.7949 56.0781 51.8066V51.9004ZM54.9941 51.7773C54.9941 51.0391 54.8516 50.4688 54.5664 50.0664C54.2812 49.6641 53.8711 49.4629 53.3359 49.4629C52.6211 49.4629 52.1074 49.7949 51.7949 50.459V53.2012C52.127 53.8652 52.6445 54.1973 53.3477 54.1973C53.8672 54.1973 54.2715 53.9961 54.5605 53.5938C54.8496 53.1914 54.9941 52.5859 54.9941 51.7773Z" fill="#040B1D"/>
<path d="M60.0801 55.1172C59.2207 55.1172 58.5215 54.8359 57.9824 54.2734C57.4434 53.707 57.1738 52.9512 57.1738 52.0059V51.8066C57.1738 51.1777 57.293 50.6172 57.5312 50.125C57.7734 49.6289 58.1094 49.2422 58.5391 48.9648C58.9727 48.6836 59.4414 48.543 59.9453 48.543C60.7695 48.543 61.4102 48.8145 61.8672 49.3574C62.3242 49.9004 62.5527 50.6777 62.5527 51.6895V52.1406H58.2578C58.2734 52.7656 58.4551 53.2715 58.8027 53.6582C59.1543 54.041 59.5996 54.2324 60.1387 54.2324C60.5215 54.2324 60.8457 54.1543 61.1113 53.998C61.377 53.8418 61.6094 53.6348 61.8086 53.377L62.4707 53.8926C61.9395 54.709 61.1426 55.1172 60.0801 55.1172ZM59.9453 49.4336C59.5078 49.4336 59.1406 49.5938 58.8438 49.9141C58.5469 50.2305 58.3633 50.6758 58.293 51.25H61.4688V51.168C61.4375 50.6172 61.2891 50.1914 61.0234 49.8906C60.7578 49.5859 60.3984 49.4336 59.9453 49.4336Z" fill="#040B1D"/>
<path d="M64.9902 55H63.9062V46H64.9902V55Z" fill="#040B1D"/>
<path d="M70.7266 48.6602L70.7559 49.3633C71.2207 48.8164 71.8477 48.543 72.6367 48.543C73.5234 48.543 74.127 48.8828 74.4473 49.5625C74.6582 49.2578 74.9316 49.0117 75.2676 48.8242C75.6074 48.6367 76.0078 48.543 76.4688 48.543C77.8594 48.543 78.5664 49.2793 78.5898 50.752V55H77.5059V50.8164C77.5059 50.3633 77.4023 50.0254 77.1953 49.8027C76.9883 49.5762 76.6406 49.4629 76.1523 49.4629C75.75 49.4629 75.416 49.584 75.1504 49.8262C74.8848 50.0645 74.7305 50.3867 74.6875 50.793V55H73.5977V50.8457C73.5977 49.9238 73.1465 49.4629 72.2441 49.4629C71.5332 49.4629 71.0469 49.7656 70.7852 50.3711V55H69.7012V48.6602H70.7266Z" fill="#040B1D"/>
<path d="M84.1445 55C84.082 54.875 84.0312 54.6523 83.9922 54.332C83.4883 54.8555 82.8867 55.1172 82.1875 55.1172C81.5625 55.1172 81.0488 54.9414 80.6465 54.5898C80.248 54.2344 80.0488 53.7852 80.0488 53.2422C80.0488 52.582 80.2988 52.0703 80.7988 51.707C81.3027 51.3398 82.0098 51.1562 82.9199 51.1562H83.9746V50.6582C83.9746 50.2793 83.8613 49.9785 83.6348 49.7559C83.4082 49.5293 83.0742 49.416 82.6328 49.416C82.2461 49.416 81.9219 49.5137 81.6602 49.709C81.3984 49.9043 81.2676 50.1406 81.2676 50.418H80.1777C80.1777 50.1016 80.2891 49.7969 80.5117 49.5039C80.7383 49.207 81.043 48.9727 81.4258 48.8008C81.8125 48.6289 82.2363 48.543 82.6973 48.543C83.4277 48.543 84 48.7266 84.4141 49.0938C84.8281 49.457 85.043 49.959 85.0586 50.5996V53.5176C85.0586 54.0996 85.1328 54.5625 85.2812 54.9062V55H84.1445ZM82.3457 54.1738C82.6855 54.1738 83.0078 54.0859 83.3125 53.9102C83.6172 53.7344 83.8379 53.5059 83.9746 53.2246V51.9238H83.125C81.7969 51.9238 81.1328 52.3125 81.1328 53.0898C81.1328 53.4297 81.2461 53.6953 81.4727 53.8867C81.6992 54.0781 81.9902 54.1738 82.3457 54.1738Z" fill="#040B1D"/>
<path d="M89.8223 49.6328C89.6582 49.6055 89.4805 49.5918 89.2891 49.5918C88.5781 49.5918 88.0957 49.8945 87.8418 50.5V55H86.7578V48.6602H87.8125L87.8301 49.3926C88.1855 48.8262 88.6895 48.543 89.3418 48.543C89.5527 48.543 89.7129 48.5703 89.8223 48.625V49.6328Z" fill="#040B1D"/>
<path d="M92.5938 52.0645L91.9141 52.7734V55H90.8301V46H91.9141V51.4434L92.4941 50.7461L94.4688 48.6602H95.7871L93.3203 51.3086L96.0742 55H94.8027L92.5938 52.0645Z" fill="#040B1D"/>
<path d="M99.4199 55.1172C98.5605 55.1172 97.8613 54.8359 97.3223 54.2734C96.7832 53.707 96.5137 52.9512 96.5137 52.0059V51.8066C96.5137 51.1777 96.6328 50.6172 96.8711 50.125C97.1133 49.6289 97.4492 49.2422 97.8789 48.9648C98.3125 48.6836 98.7812 48.543 99.2852 48.543C100.109 48.543 100.75 48.8145 101.207 49.3574C101.664 49.9004 101.893 50.6777 101.893 51.6895V52.1406H97.5977C97.6133 52.7656 97.7949 53.2715 98.1426 53.6582C98.4941 54.041 98.9395 54.2324 99.4785 54.2324C99.8613 54.2324 100.186 54.1543 100.451 53.998C100.717 53.8418 100.949 53.6348 101.148 53.377L101.811 53.8926C101.279 54.709 100.482 55.1172 99.4199 55.1172ZM99.2852 49.4336C98.8477 49.4336 98.4805 49.5938 98.1836 49.9141C97.8867 50.2305 97.7031 50.6758 97.6328 51.25H100.809V51.168C100.777 50.6172 100.629 50.1914 100.363 49.8906C100.098 49.5859 99.7383 49.4336 99.2852 49.4336Z" fill="#040B1D"/>
<path d="M104.623 47.125V48.6602H105.807V49.498H104.623V53.4297C104.623 53.6836 104.676 53.875 104.781 54.0039C104.887 54.1289 105.066 54.1914 105.32 54.1914C105.445 54.1914 105.617 54.168 105.836 54.1211V55C105.551 55.0781 105.273 55.1172 105.004 55.1172C104.52 55.1172 104.154 54.9707 103.908 54.6777C103.662 54.3848 103.539 53.9688 103.539 53.4297V49.498H102.385V48.6602H103.539V47.125H104.623Z" fill="#040B1D"/>
<path fill-rule="evenodd" clip-rule="evenodd" d="M77.8038 39.9494C77.8038 40.4404 78.2495 40.8079 78.7176 40.6825C86.3352 38.6411 91.9545 31.5597 91.9545 23.1374C91.9545 13.1204 84.0056 5 74.2 5C64.3944 5 56.4455 13.1204 56.4455 23.1374C56.4455 31.7533 62.3262 38.966 70.2109 40.8153C70.6738 40.9238 71.1037 40.5582 71.1037 40.0765V35.7796C71.1037 35.4325 70.8749 35.1299 70.5493 35.0228C68.0522 34.2008 66.0326 32.7454 64.4903 30.6566C62.8471 28.4152 62.0255 25.8181 62.0255 22.8652C62.0255 18.9637 63.4604 15.7677 66.3303 13.2773C68.7141 11.2138 71.4277 10.1821 74.4711 10.1821C78.3939 10.1821 81.5588 11.6348 83.9658 14.5403C85.9099 16.8883 86.8819 19.5981 86.8819 22.6696C86.8819 25.6817 86.0198 28.3796 84.2956 30.7633C82.8495 32.7761 80.8699 34.1959 78.357 35.0226C78.0318 35.1296 77.8038 35.432 77.8038 35.7786V39.9494ZM77.5781 25.5962C77.5781 25.1686 77.2362 24.822 76.8145 24.822H72.1103C71.6886 24.822 71.3467 25.1686 71.3467 25.5962V25.8899C71.3467 26.5464 70.6125 26.8714 70.246 26.3301C69.5911 25.3632 69.2637 24.2201 69.2637 22.9008C69.2637 21.3947 69.7787 20.0903 70.8086 18.9874C71.8385 17.8845 73.0593 17.3331 74.4711 17.3331C75.8713 17.3331 77.0863 17.8845 78.1162 18.9874C79.1461 20.0903 79.661 21.3947 79.661 22.9008C79.661 24.18 79.3375 25.3071 78.6903 26.2823C78.3249 26.8329 77.5781 26.5105 77.5781 25.8469V25.5962Z" fill="#15ADFF"/>
<path d="M7 16.2881C7 15.8605 7.34189 15.5139 7.76364 15.5139H13.9616C14.3833 15.5139 14.7252 15.8605 14.7252 16.2881V26.7113C14.7252 27.199 14.8312 27.5843 15.0432 27.867C15.2553 28.1427 15.5152 28.2806 15.823 28.2806C16.1376 28.2806 16.4522 28.1321 16.7668 27.8352C17.0883 27.5313 17.249 27.1566 17.249 26.7113V16.2881C17.249 15.8605 17.5909 15.5139 18.0126 15.5139H24.3029C24.7246 15.5139 25.0665 15.8605 25.0665 16.2881V27.0188C25.0665 28.7931 24.6254 30.3306 23.7431 31.6313C22.8676 32.932 21.7186 33.9146 20.296 34.5791C18.8802 35.2436 17.3892 35.5758 15.823 35.5758C14.7081 35.5758 13.6206 35.3956 12.5605 35.0351C11.5004 34.6675 10.5497 34.1232 9.70844 33.4021C8.87402 32.674 8.21401 31.7727 7.72841 30.6982C7.2428 29.6237 7 28.3972 7 27.0188V16.2881Z" fill="#040B1D"/>
<path d="M27.6502 34.453C27.2284 34.453 26.8865 34.1064 26.8865 33.6788V22.0681C26.8865 20.5058 27.3072 19.1698 28.1484 18.0599C28.9965 16.943 30.1148 16.1018 31.5032 15.5363C32.8916 14.9707 34.3621 14.688 35.9147 14.688C37.5014 14.688 39.0095 14.9849 40.439 15.5787C41.8753 16.1654 43.0346 17.0455 43.9169 18.219C44.806 19.3924 45.2506 20.778 45.2506 22.3756V33.6788C45.2506 34.1064 44.9087 34.453 44.4869 34.453H37.8991C37.4774 34.453 37.1355 34.1064 37.1355 33.6788V22.8951C37.1355 22.471 37.0192 22.1564 36.7867 21.9514C36.561 21.7394 36.3011 21.6333 36.007 21.6333C35.6787 21.6333 35.3641 21.7606 35.0631 22.015C34.7622 22.2625 34.6117 22.5558 34.6117 22.8951V33.6788C34.6117 34.1064 34.2698 34.453 33.8481 34.453H27.6502Z" fill="#040B1D"/>
<path d="M47.8239 34.453C47.4022 34.453 47.0603 34.1064 47.0603 33.6788V15.6848C47.0603 15.2573 47.4022 14.9106 47.8239 14.9106H54.3297C54.7514 14.9106 55.0933 15.2573 55.0933 15.6848V33.6788C55.0933 34.1064 54.7514 34.453 54.3297 34.453H47.8239Z" fill="#040B1D"/>
<path d="M93.454 16.2881C93.454 15.8605 93.7959 15.5139 94.2176 15.5139H100.416C100.837 15.5139 101.179 15.8605 101.179 16.2881V26.7113C101.179 27.199 101.285 27.5843 101.497 27.867C101.709 28.1427 101.969 28.2806 102.277 28.2806C102.592 28.2806 102.906 28.1321 103.221 27.8352C103.542 27.5313 103.703 27.1566 103.703 26.7113V16.2881C103.703 15.8605 104.045 15.5139 104.467 15.5139H110.757C111.179 15.5139 111.521 15.8605 111.521 16.2881V27.0188C111.521 28.7931 111.079 30.3306 110.197 31.6313C109.322 32.932 108.173 33.9146 106.75 34.5791C105.334 35.2436 103.843 35.5758 102.277 35.5758C101.162 35.5758 100.075 35.3956 99.0145 35.0351C97.9544 34.6675 97.0037 34.1232 96.1624 33.4021C95.328 32.674 94.668 31.7727 94.1824 30.6982C93.6968 29.6237 93.454 28.3972 93.454 27.0188V16.2881Z" fill="#040B1D"/>
<path d="M132.666 21.4392C132.818 21.7943 132.671 22.2053 132.337 22.3934L124.008 27.0914C123.643 27.2977 123.181 27.167 122.974 26.7983L121.748 24.6191C121.537 24.2432 121.671 23.7646 122.045 23.5567L124.39 22.2546C124.833 22.0081 124.904 21.3913 124.42 21.2395C124.188 21.1665 123.936 21.13 123.669 21.13C122.823 21.13 121.977 21.5221 121.13 22.2761C120.955 22.4269 120.167 23.0302 119.934 23.6635C119.788 24.0255 119.817 24.3573 119.846 24.5684C119.875 24.8398 120.663 27.0416 121.335 27.8258C122.035 28.6402 122.823 29.0323 123.757 29.0323C125.113 29.0323 126.585 28.2616 128.112 26.7202C128.419 26.4102 128.917 26.3923 129.227 26.6994L132.468 29.9115C132.73 30.1714 132.776 30.5857 132.551 30.8798C131.931 31.6937 131.157 32.4251 130.264 33.0739C129.155 33.8581 127.988 34.4311 126.733 34.8534C125.478 35.2455 124.224 35.4566 122.969 35.4566C121.714 35.4566 120.547 35.2455 119.409 34.8534C118.27 34.4613 117.249 33.8581 116.315 33.0135C115.381 32.1992 114.652 31.1435 114.068 29.8768C113.514 28.61 113.105 27.1623 113.018 25.5034C113.018 25.4129 113.018 25.3827 113.018 25.2319C113.018 25.0811 113.018 24.9906 113.018 24.9906C113.018 22.7889 113.514 20.8887 114.477 19.3203C115.44 17.7519 116.695 16.5455 118.183 15.7613C119.7 14.9771 121.218 14.5548 122.764 14.5548C127.402 14.5548 130.703 16.8496 132.666 21.4392Z" fill="#040B1D"/>
</svg>

<svg width="140" height="64" fill="none" xmlns="http://www.w3.org/2000/svg"><path d="m9.473 52.31.164 1.125.24-1.013 1.688-5.953h.949l1.646 5.953.235 1.031.181-1.148 1.324-5.836h1.131L14.963 55h-1.025l-1.758-6.217-.135-.65-.135.65L10.088 55H9.063L7 46.469h1.125l1.348 5.841ZM21.83 55c-.062-.125-.113-.348-.152-.668-.504.523-1.106.785-1.805.785-.625 0-1.139-.176-1.541-.527a1.728 1.728 0 0 1-.598-1.348c0-.66.25-1.172.75-1.535.504-.367 1.211-.55 2.121-.55h1.055v-.499c0-.379-.113-.68-.34-.902-.226-.227-.56-.34-1.002-.34-.386 0-.71.098-.972.293-.262.195-.393.432-.393.709h-1.09c0-.316.112-.621.334-.914.227-.297.532-.531.914-.703.387-.172.81-.258 1.272-.258.73 0 1.303.184 1.717.55.414.364.628.866.644 1.507v2.918c0 .582.074 1.044.223 1.388V55H21.83Zm-1.799-.826c.34 0 .662-.088.967-.264.305-.176.525-.404.662-.685v-1.301h-.85c-1.328 0-1.992.389-1.992 1.166 0 .34.114.605.34.797.227.191.518.287.873.287ZM25.621 55h-1.084v-9h1.084v9ZM28.54 55h-1.085v-9h1.084v9ZM32.91 55.117c-.86 0-1.558-.281-2.097-.844-.54-.566-.81-1.322-.81-2.267v-.2c0-.628.12-1.189.358-1.681a2.816 2.816 0 0 1 1.008-1.16 2.536 2.536 0 0 1 1.406-.422c.825 0 1.465.272 1.922.814.457.543.686 1.32.686 2.333v.45h-4.295c.015.626.197 1.132.545 1.518.351.383.797.574 1.336.574.383 0 .707-.078.972-.234.266-.156.498-.363.698-.621l.662.516c-.532.816-1.328 1.224-2.39 1.224Zm-.135-5.683c-.437 0-.804.16-1.101.48-.297.316-.48.762-.551 1.336h3.176v-.082c-.031-.55-.18-.977-.446-1.277-.265-.305-.625-.457-1.078-.457ZM38.113 47.125v1.535h1.184v.838h-1.184v3.932c0 .254.053.445.159.574.105.125.285.187.538.187.125 0 .297-.023.516-.07V55a3.144 3.144 0 0 1-.832.117c-.484 0-.85-.146-1.096-.44-.246-.292-.369-.708-.369-1.247v-3.932h-1.154v-.838h1.154v-1.535h1.084Z" fill="#040B1D"/><path fill-rule="evenodd" clip-rule="evenodd" d="M77.804 39.95c0 .49.445.858.913.732 7.618-2.04 13.237-9.122 13.237-17.545C91.954 13.12 84.005 5 74.2 5c-9.806 0-17.755 8.12-17.755 18.137 0 8.616 5.881 15.829 13.766 17.678.463.109.892-.257.892-.738V35.78a.801.801 0 0 0-.554-.757c-2.497-.822-4.517-2.278-6.059-4.366-1.643-2.242-2.465-4.839-2.465-7.792 0-3.901 1.435-7.097 4.305-9.588 2.384-2.063 5.097-3.095 8.14-3.095 3.924 0 7.089 1.453 9.496 4.358 1.944 2.348 2.916 5.058 2.916 8.13 0 3.012-.862 5.71-2.587 8.093-1.446 2.013-3.425 3.433-5.938 4.26a.8.8 0 0 0-.553.756v4.17Zm-.226-14.354a.769.769 0 0 0-.764-.774H72.11a.769.769 0 0 0-.763.774v.294c0 .656-.735.981-1.101.44-.655-.967-.982-2.11-.982-3.43 0-1.505.514-2.81 1.544-3.913 1.03-1.102 2.251-1.654 3.663-1.654 1.4 0 2.615.552 3.645 1.654 1.03 1.103 1.545 2.408 1.545 3.914 0 1.279-.324 2.406-.97 3.381-.366.55-1.113.229-1.113-.435v-.25Z" fill="#15ADFF"/><path d="M7 16.288c0-.428.342-.774.764-.774h6.198c.421 0 .763.346.763.774V26.71c0 .488.106.873.318 1.156.212.276.472.413.78.413.315 0 .63-.148.944-.445.321-.304.482-.679.482-1.124V16.288c0-.428.342-.774.764-.774h6.29c.422 0 .764.346.764.774v10.73c0 1.775-.442 3.313-1.324 4.613a8.33 8.33 0 0 1-3.447 2.948 10.404 10.404 0 0 1-4.473.997c-1.115 0-2.202-.18-3.263-.541a8.744 8.744 0 0 1-2.852-1.633c-.834-.728-1.494-1.63-1.98-2.704-.485-1.075-.728-2.3-.728-3.68v-10.73ZM27.65 34.453a.769.769 0 0 1-.763-.774V22.068c0-1.562.42-2.898 1.261-4.008.849-1.117 1.967-1.958 3.355-2.524a11.582 11.582 0 0 1 4.412-.848c1.586 0 3.095.297 4.524.89 1.436.587 2.596 1.467 3.478 2.64.889 1.174 1.334 2.56 1.334 4.157V33.68a.769.769 0 0 1-.764.774h-6.588a.769.769 0 0 1-.764-.774V22.895c0-.424-.116-.739-.348-.944a1.105 1.105 0 0 0-.78-.318c-.328 0-.643.127-.944.382-.3.247-.451.54-.451.88v10.784a.769.769 0 0 1-.764.774H27.65ZM47.824 34.453a.769.769 0 0 1-.764-.774V15.685c0-.428.342-.774.764-.774h6.506c.421 0 .763.346.763.774v17.994a.769.769 0 0 1-.763.774h-6.506ZM93.454 16.288c0-.428.342-.774.764-.774h6.198c.421 0 .763.346.763.774V26.71c0 .488.106.873.318 1.156.212.276.472.413.78.413.315 0 .629-.148.944-.445.321-.304.482-.679.482-1.124V16.288a.77.77 0 0 1 .764-.774h6.29a.77.77 0 0 1 .764.774v10.73c0 1.775-.442 3.313-1.324 4.613a8.324 8.324 0 0 1-3.447 2.948 10.405 10.405 0 0 1-4.473.997c-1.115 0-2.202-.18-3.263-.541a8.745 8.745 0 0 1-2.852-1.633c-.834-.728-1.494-1.63-1.98-2.704-.485-1.075-.728-2.3-.728-3.68v-10.73ZM132.666 21.439a.757.757 0 0 1-.329.954l-8.329 4.698a.757.757 0 0 1-1.034-.293l-1.226-2.179a.78.78 0 0 1 .297-1.063l2.345-1.302c.443-.246.514-.863.03-1.015a2.497 2.497 0 0 0-.751-.11c-.846 0-1.692.393-2.539 1.147-.175.15-.963.754-1.196 1.387a1.724 1.724 0 0 0-.088.905c.029.272.817 2.473 1.489 3.258.7.814 1.488 1.206 2.422 1.206 1.356 0 2.828-.77 4.355-2.312a.787.787 0 0 1 1.115-.02l3.241 3.211c.262.26.308.674.083.969-.62.814-1.394 1.545-2.287 2.194a13.47 13.47 0 0 1-3.531 1.78c-1.255.391-2.509.602-3.764.602s-2.422-.21-3.56-.603a8.841 8.841 0 0 1-3.094-1.84c-.934-.814-1.663-1.87-2.247-3.136a12.435 12.435 0 0 1-1.05-4.374v-.512c0-2.202.496-4.102 1.459-5.67.963-1.57 2.218-2.776 3.706-3.56 1.517-.784 3.035-1.206 4.581-1.206 4.638 0 7.939 2.294 9.902 6.884Z" fill="#040B1D"/></svg>
